wire-ios/Wire-iOS/Resources/Images/Images.xcassets/ConversationList/Header/New Conversation.imageset/New Conversation.svg

<svg fill="none" height="26" viewBox="0 0 25 26" width="25" xmlns="http://www.w3.org/2000/svg"><path d="m12.5 25.2617c-6.70312 0-12.222656-5.5195-12.222656-12.2226 0-6.69144 5.519536-12.222694 12.210956-12.222694 6.7031 0 12.2344 5.531254 12.2344 12.222694 0 6.7031-5.5196 12.2226-12.2227 12.2226zm-5.74219-12.2109c0 .7148.52735 1.2304 1.25391 1.2304h3.24608v3.2579c0 .7148.5156 1.2304 1.2305 1.2304.7383 0 1.2656-.5156 1.2656-1.2304v-3.2579h3.2461c.7148 0 1.2422-.5156 1.2422-1.2304 0-.7383-.5274-1.2656-1.2422-1.2656h-3.2461v-3.24614c0-.71484-.5273-1.24218-1.2656-1.24218-.7149 0-1.2305.52734-1.2305 1.24218v3.24614h-3.24608c-.72656 0-1.25391.5273-1.25391 1.2656z" fill="#0667c8"/></svg>

<svg width="25" height="26" viewBox="0 0 25 26" fill="none" xmlns="http://www.w3.org/2000/svg">
<path d="M12.5 25.2617C5.79688 25.2617 0.277344 19.7422 0.277344 13.0391C0.277344 6.34766 5.79688 0.816406 12.4883 0.816406C19.1914 0.816406 24.7227 6.34766 24.7227 13.0391C24.7227 19.7422 19.2031 25.2617 12.5 25.2617ZM6.75781 13.0508C6.75781 13.7656 7.28516 14.2812 8.01172 14.2812H11.2578V17.5391C11.2578 18.2539 11.7734 18.7695 12.4883 18.7695C13.2266 18.7695 13.7539 18.2539 13.7539 17.5391V14.2812H17C17.7148 14.2812 18.2422 13.7656 18.2422 13.0508C18.2422 12.3125 17.7148 11.7852 17 11.7852H13.7539V8.53906C13.7539 7.82422 13.2266 7.29688 12.4883 7.29688C11.7734 7.29688 11.2578 7.82422 11.2578 8.53906V11.7852H8.01172C7.28516 11.7852 6.75781 12.3125 6.75781 13.0508Z" fill="#0667C8"/>
</svg>
